dist/svgs/carbon-icons/svg/add-glyph.svg

<svg xmlns="http://www.w3.org/2000/svg" fill-rule="evenodd" viewBox="0 0 16 16"><path d="M8 0C3.6 0 0 3.6 0 8s3.6 8 8 8 8-3.6 8-8-3.6-8-8-8zm4 9H9v3H7V9H4V7h3V4h2v3h3v2z"/></svg>

<svg width="16px" height="16px" viewBox="0 0 16 16" version="1.1" xmlns="http://www.w3.org/2000/svg" xmlns:xlink="http://www.w3.org/1999/xlink" fill-rule="evenodd">
    <path d="M8,0 C3.6,0 0,3.6 0,8 C0,12.4 3.6,16 8,16 C12.4,16 16,12.4 16,8 C16,3.6 12.4,0 8,0 L8,0 Z M12,9 L9,9 L9,12 L7,12 L7,9 L4,9 L4,7 L7,7 L7,4 L9,4 L9,7 L12,7 L12,9 L12,9 Z" id="Shape" stroke="none" fill="#000000"></path>
</svg>
